resources/themes/cura/icons/tab_monitor_unknown.svg

<svg xmlns="http://www.w3.org/2000/svg" viewBox="0 0 30 30">
  <path
     d="M 22.5 0 A 7.5 7.5 0 0 0 15 7.5 A 7.5 7.5 0 0 0 22.5 15 A 7.5 7.5 0 0 0 30 7.5 A 7.5 7.5 0 0 0 22.5 0 z M 22.710938 3.5996094 C 23.577604 3.5996094 24.264104 3.7911615 24.773438 4.1738281 C 25.282771 4.5564948 25.537109 5.0577813 25.537109 5.6757812 C 25.537109 6.0304479 25.486193 6.3431875 25.380859 6.6171875 C 25.278859 6.8871875 25.132693 7.1235521 24.943359 7.3242188 C 24.753359 7.5242188 24.524479 7.7033281 24.257812 7.8613281 C 23.994479 8.0193281 23.696615 8.1629687 23.363281 8.2929688 L 23.363281 9.4921875 L 21.509766 9.4921875 L 21.509766 7.71875 C 21.759099 7.6520833 21.983594 7.5836719 22.183594 7.5136719 C 22.386927 7.4436719 22.598979 7.329875 22.820312 7.171875 C 23.026979 7.031875 23.188021 6.8683073 23.304688 6.6816406 C 23.424021 6.494974 23.484375 6.2834948 23.484375 6.0488281 C 23.484375 5.6974948 23.369292 5.4481146 23.140625 5.3007812 C 22.915958 5.1501146 22.598167 5.0742187 22.1875 5.0742188 C 21.934167 5.0742188 21.648745 5.1296146 21.330078 5.2382812 C 21.014078 5.3469479 20.724937 5.4862031 20.460938 5.6582031 L 20.25 5.6582031 L 20.25 4.0527344 C 20.474667 3.9580677 20.819776 3.8598125 21.287109 3.7578125 C 21.753776 3.6524792 22.229604 3.5996094 22.710938 3.5996094 z M 21.382812 10.210938 L 23.509766 10.210938 L 23.509766 11.599609 L 21.382812 11.599609 L 21.382812 10.210938 z " />
</svg>

<svg xmlns="http://www.w3.org/2000/svg" viewBox="0 0 30 30">
    <path d="M2.5 2.5h25v1.19h-25V2.5zm0 23.81h2.287l2.272-1.19h15.966l2.234 1.19H27.5v1.19h-2.239l-2.236-1.19H7.057l-2.27 1.177L2.5 27.5v-1.19zM26.364 3.69H27.5v22.62h-1.136V3.69zM2.5 3.69h1.136v22.62H2.5V3.69zm3.41 2.381h18.18v16.667H5.91V6.071zm1.135 1.19h15.91v14.287H7.045V7.262zm5.682 0h4.546v3.572h-4.546V7.262zM9.318 20.358h11.364v1.19H9.318v-1.19zm4.546-9.524h2.272v1.19h-2.272v-1.19z" fill="#fff" fill-rule="evenodd"/>
    <circle cx="22.5" cy="7.5" r="7.5" fill="#7f7f7f"/>
    <path d="M25.538 5.675q0 .532-.158.943-.153.405-.437.706-.285.3-.685.537-.395.237-.895.432v1.2h-1.854V7.718q.374-.1.674-.205.305-.105.637-.342.31-.21.485-.49.179-.28.179-.632 0-.527-.343-.748-.337-.226-.953-.226-.38 0-.858.163-.474.163-.87.421h-.21V4.053q.337-.142 1.038-.295.7-.158 1.422-.158 1.3 0 2.064.574t.764 1.501zM23.51 11.6h-2.128v-1.39h2.128v1.39z" style="-inkscape-font-specification:'Verdana Bold'" font-weight="700" font-family="Verdana" fill="#fff" font-size="10.786" letter-spacing="0" word-spacing="0"/>
</svg>
